remix/Map/map-pin-time-fill.svg

<svg viewBox="0 0 24 24" fill="currentColor" xmlns="http://www.w3.org/2000/svg"><path d="M13 11V6H11V13H17V11H13ZM18.364 17.364L12 23.7279L5.63604 17.364C2.12132 13.8492 2.12132 8.15076 5.63604 4.63604C9.15076 1.12132 14.8492 1.12132 18.364 4.63604C21.8787 8.15076 21.8787 13.8492 18.364 17.364Z"/></svg>

<svg viewBox="0 0 24 24" xmlns="http://www.w3.org/2000/svg"><path fill="none" d="M0 0h24v24H0Z"/><path d="M13 11V6h-2v7h6v-2h-4Zm5.36 6.36l-6.37 6.36 -6.37-6.37v0c-3.52-3.52-3.52-9.22 0-12.73 3.51-3.52 9.21-3.52 12.72 0 3.51 3.51 3.51 9.21 0 12.72Z"/></svg>
